X:15749
T:Sons of Sorrow
S:Digital Tradition, sonsrrow
N:See also "What's the Life of a Man" for similar theme
B:From Southern Mountain Folksongs, McNeil
B:Collected from Almeda Riddle
Z:dt:sonsrrow
M:2/4
L:1/8
Q:1/4=100
W:Hail! ye sighing sons of sorrow;
W:Come learn with me your certain doom;
W:Learn with me what's your fate tomorrow
W:Dead and perhaps laid in the tomb!
W:See all nature fading, dying!
W:Silent, all things seem to pine;
W:Life from vegetation flying,
W:Brings to our mind the mouldering vine.
W:
W:Lo! in yonder forest standing,
W:Those lofty cedars; see them nod!
W:Scenes of nature, how surprising!
W:But read, in nature, nature's God.
W:While the annual frosts is cropping
W:Leaves and tendrils from the trees,
W:So our friends are yearly dropping
W:We are but like to one of these.
K:G
B3B|F-E D2|E2 F-G|A2 B2|B3-E|BA GE|F2 E2|B3z|
B3B|F-E DD|E2 F-G|A2 B2|B2 EE|B-A G-E|F2 E2|B3z|
F-E D2|E2 F-G|B3E|B-A G-E|F2 E2|B2 B2|d2 d2|B3z|
B2 A-B|A-_B e2|e2 f-e|d2 e2|B2 AG|E3D|E2 E2|E2- A2|
e2 ed|B3A|G-E F2|E4||
